X:696
%%etbk:tnset id:516,pos:2,rep:3x,ant:
%%etbk:wsite https://thesession.org/tunes/3049
%%etbk:color #ffffcc
%%etbk:pldat 2016-09-17T14:27,2016-09-13T17:01,2016-09-10T15:06,2016-09-03T10:15,2016-08-21T11:39,2016-08-12T17:14,2016-08-04T18:29,2016-07-31T16:59,2016-07-29T16:17,2016-07-23T15:55,2016-07-21T18:20,2016-07-19T20:21,2016-07-09T13:18,2016-06-12T13:06,2016-05-30T18:54,2016-05-26T18:42,2016-05-25T15:47,2016-05-24T15:19,2016-05-23T18:04,2016-04-20T16:20,2016-03-24T16:28,2016-03-16T17:31,2016-01-26T17:51,2016-01-10T13:56,2015-12-31T14:23,2015-12-29T16:44,2015-12-27T15:08,2015-12-23T17:43,2015-12-15T16:54,2015-12-13T16:27,2015-12-01T17:05,2015-11-25T15:48,2015-10-14T17:59,2015-10-12T19:14,2015-10-07T17:23,2015-09-30T17:06,2015-09-06T14:35,2015-08-23T15:50,2015-08-11T17:36,2015-08-02T12:05,2015-07-30T19:34,2015-07-29T17:42,2015-07-27T19:17,2015-07-25T15:27,2015-07-15T18:08,2015-06-05T17:45,2015-05-27T19:46,2015-05-19T17:35,2015-05-18T19:33,2015-05-17T16:28,2015-05-17T14:01,2015-05-10T14:39,2015-05-06T18:52,2015-04-27T19:06,2015-04-26T13:26,2015-04-20T19:04,2015-04-19T11:39
T: The Antrim Rose
Z: Piano Box Version by Martin Fleischmann
H: Created 2015-04-19 /  Last Modified 2015-12-23
R: reel
M: 4/4
L: 1/8
K: Dmaj
|:!4!fd !2!d2 !3!ed!1!Bd | !1!A!2!d d2 !1!A!2!dde | !4!fd d2 !3!ed!1!B!2!A | !1!Bd!5!gf !3!e2 de |
fd d2 edBd | !1!A!3!ddc !1!defg | !5!a2 !4!ab !4!a!3!g!2!e!4!g |1 !3!fedB A2 de :|2 fedB A2 Bd ||
|:!3!e2 ef edBd | !3!e!2!e !1!d!3!f !2!efgf | !2!edfd !2!e!1!d!2!Bd | A!4!ddc dAB!4!d |
!3!e2 !3!ef edBd | !3!e!2!e !1!df !2!efg!2!f | !1!e!4!aab !4!a!3!g!2!e!4!g |1 !3!fedB A2 Bd :|2 fedB A2 de ||


